PortableApps/LibreOfficePortable/App/libreoffice/help/media/icon-themes/cmd/sc_name.svg

<svg viewBox="0 0 16 16" xmlns="http://www.w3.org/2000/svg"><path d="m1 5v9h6.2832031c.3503479-.592057.9900634-1 1.7167969-1h1v-4h-1.0351562c-1.0717811 0-1.9648438-.8930623-1.9648438-1.9648438v-.0703124c0-1.0717811.8930627-1.9648438 1.9648438-1.9648438zm13 4v4h1v-4z" fill="#fff"/><path d="m0 1v4 9.5c-.00038442.276301.22369855.500384.5.5h6.5c0-.363367.1082746-.701862.2832031-.998047h-6.28515622v-9.001953h4.00195312v4h-4v1h4v4h1v-4h4v-1h-1.0351562-2.9648438v-4h2.9648438 1.0351562 1 4.001953.033203c.350674 0 .677455.1033441.964844.2695312v-.2695312-4zm16 7.7304688c-.287389.1661871-.61417.2695312-.964844.2695312h-.033203v4c.363235.000367.702066.108058.998047.283203zm-2 .2695312v1h1v-1z" fill="#808080"/><g fill="#4d82b8"><path d="m8.964844 6.0000003c-.534081 0-.964844.430763-.964844.964844v.07031c0 .534083.430763.964846.964844.964846h2.035156v5.9999997h-2c-.554 0-1 .446-1 1s.446 1 1 1h6c.554 0 1-.446 1-1s-.446-1-1-1h-2v-5.9999997h2.035156c.534081 0 .964844-.430763.964844-.964844v-.07031c0-.534083-.430763-.964846-.964844-.964846z"/><path d="m0 1h16v4h-16z"/></g></svg>

<?xml version="1.0" encoding="UTF-8" standalone="no"?>
<svg xmlns="http://www.w3.org/2000/svg" xmlns:sodipodi="http://sodipodi.sourceforge.net/DTD/sodipodi-0.dtd" xmlns:inkscape="http://www.inkscape.org/namespaces/inkscape" viewBox="0 0 16 16" version="1.1">
 <metadata id="metadata16">
  <rdf:RDF>
   <cc:Work>
    <dc:format>image/svg+xml</dc:format>
    <dc:type rdf:resource="http://purl.org/dc/dcmitype/StillImage"/>
   </cc:Work>
  </rdf:RDF>
 </metadata>
 <defs id="defs14"/>
 <sodipodi:namedview pagecolor="#ffffff" bordercolor="#666666" borderopacity="1" objecttolerance="10" gridtolerance="10" guidetolerance="10" inkscape:pageopacity="0" inkscape:pageshadow="2" inkscape:window-width="2560" inkscape:window-height="1319" id="namedview12" showgrid="true" inkscape:zoom="29.5" inkscape:cx="7.6631251" inkscape:cy="5.4181549" inkscape:window-x="0" inkscape:window-y="30" inkscape:window-maximized="1" inkscape:current-layer="svg10">
  <inkscape:grid type="xygrid" id="grid823"/>
 </sodipodi:namedview>
 <path d="M 1 5 L 1 14 L 7.2832031 14 C 7.633551 13.407943 8.2732665 13 9 13 L 10 13 L 10 9 L 8.9648438 9 C 7.8930627 9 7 8.1069377 7 7.0351562 L 7 6.9648438 C 7 5.8930627 7.8930627 5 8.9648438 5 L 1 5 z M 14 9 L 14 13 L 15 13 L 15 9 L 14 9 z " id="path825" fill="#ffffff"/>
 <path d="M 0 1 L 0 5 L 0 14.5 C -0.00038442 14.776301 0.22369855 15.000384 0.5 15 L 7 15 C 7 14.636633 7.1082746 14.298138 7.2832031 14.001953 L 0.99804688 14.001953 L 0.99804688 5 L 5 5 L 5 9 L 1 9 L 1 10 L 5 10 L 5 14 L 6 14 L 6 10 L 10 10 L 10 9 L 8.9648438 9 L 6 9 L 6 5 L 8.9648438 5 L 10 5 L 11 5 L 15.001953 5 L 15.035156 5 C 15.38583 5 15.712611 5.1033441 16 5.2695312 L 16 5 L 16 1 L 0 1 z M 16 8.7304688 C 15.712611 8.8966559 15.38583 9 15.035156 9 L 15.001953 9 L 15.001953 13 C 15.365188 13.000367 15.704019 13.108058 16 13.283203 L 16 8.7304688 z M 14 9 L 14 10 L 15 10 L 15 9 L 14 9 z " id="path827" fill="#808080"/>
 <path d="m8.964844 6.0000003c-.534081 0-.964844.430763-.964844.964844v.07031c0 .534083.430763.964846.964844.964846h2.035156v5.9999997h-2c-.554 0-1 .446-1 1s .446 1 1 1h6c .554 0 1-.446 1-1s-.446-1-1-1h-2v-5.9999997h2.035156c.534081 0 .964844-.430763.964844-.964844v-.07031c0-.534083-.430763-.964846-.964844-.964846z" fill="#4d82b8" id="path8"/>
</svg>
